X: 22443
T: Lads Of Dunse, The
R: jig
M: 6/8
K: Dmajor
B|:AFD DED|DED B2A|Bcd AFA|BGE E2d|
A2D DED|DED B2A|Bcd edc|1 d3 dcB:|2 d3 d2g||
|:f/g/af d2e|fga B2A|Bcd AFA|BGE E2g
f/g/af d2e|fga B2A|Bcd edc|1 d3 d2g:|2 d3 dc||

